X: 1
T:A Hundred Bottles of Beer on the wall
C:anon.
O:USA?
R:Drinking song
Z:Transcribed by Frank Nordberg - http://www.musicaviva.com
M:3/4
L:1/4
Q:1/4=240
K:G
G|"G"G2G|"G"GGG|"G"GGG|"G"G2G|
w:A hun-dred bot-tles of beer on the wall, a
"D7"A2A|"D7"FFF|"D7"A3|"D7"z2 F|
w: hun-dred bot-tles of beer. If
"G"GGG|"G7"GGG|"C"GGG|"C"G3|
w:one of those bot-tles should hap-pen to fall.
"D7"DDD|"D7"DEF|"G"GGG|"G"G2|]
w: Nine-ty nine bot-tles of beer on the wall.
